Marwaita/scalable/apps/blogilo.svg

<svg xmlns="http://www.w3.org/2000/svg" width="32" height="32" version="1">
 <path fill="#35b9f5" d="m27 28.5v-25c0-0.831-0.669-1.5-1.5-1.5h-19c-0.831 0-1.5 0.669-1.5 1.5v25c0 0.831 0.669 1.5 1.5 1.5h19c0.831 0 1.5-0.669 1.5-1.5z"/>
 <g opacity=".2" transform="matrix(.14322 0 0 .14322 9 10)">
  <g>
   <g>
    <path d="m36.491 40.31s13.827-0.006 13.858-0.006c3.201 0 5.82-2.344 5.873-5.556 0.051-3.244-2.537-6.15-5.781-6.201l-13.766 0.016c-3.249-0.031-5.914 2.537-5.966 5.78-0.051 3.243 2.538 5.915 5.782 5.967z"/>
    <path d="m62.55 55.48h-27.529c-3.244 0-5.875 2.631-5.875 5.875s2.631 5.873 5.875 5.873h27.529c3.244 0 5.875-2.629 5.875-5.873s-2.631-5.875-5.875-5.875z"/>
    <path d="m48.875 0c-26.992 0-48.875 21.882-48.875 48.875s21.883 48.875 48.875 48.875 48.875-21.882 48.875-48.875-21.883-48.875-48.875-48.875zm27.902 77.021c-3.776 3.889-9.108 5.972-15.42 6.024h-24.669c-0.155 0.002-0.31 0.003-0.463 0.003-7.074 0-12.534-1.994-16.227-5.927-3.694-3.935-4.878-9.256-4.878-16.649 0.007-0.51-0.042-1.006-0.011-1.496l0.013-25.991c0.305-6.445 3.185-10.431 5.353-12.713 3.503-3.689 8.455-5.56 14.721-5.56h0.174l16.11-0.012 0.15 0.004c10.533 0.292 18.123 7.623 18.197 17.822 0.275 3.063 0.104 5.896-0.493 8.452 3.541 0.105 7.91 0.725 10.741 4.383 2.5 3.23 2.516 6.903 2.537 11.985 0.006 1.04 0.035 3.688 0.035 3.688-0.068 6.579-2.098 12.109-5.87 15.987z"/>
   </g>
  </g>
 </g>
 <g fill="#fff" transform="matrix(.14322 0 0 .14322 9 9)">
  <g>
   <g>
    <path d="m36.491 40.31s13.827-0.006 13.858-0.006c3.201 0 5.82-2.344 5.873-5.556 0.051-3.244-2.537-6.15-5.781-6.201l-13.766 0.016c-3.249-0.031-5.914 2.537-5.966 5.78-0.051 3.243 2.538 5.915 5.782 5.967z"/>
    <path d="m62.55 55.48h-27.529c-3.244 0-5.875 2.631-5.875 5.875s2.631 5.873 5.875 5.873h27.529c3.244 0 5.875-2.629 5.875-5.873s-2.631-5.875-5.875-5.875z"/>
    <path d="m48.875 0c-26.992 0-48.875 21.882-48.875 48.875s21.883 48.875 48.875 48.875 48.875-21.882 48.875-48.875-21.883-48.875-48.875-48.875zm27.902 77.021c-3.776 3.889-9.108 5.972-15.42 6.024h-24.669c-0.155 0.002-0.31 0.003-0.463 0.003-7.074 0-12.534-1.994-16.227-5.927-3.694-3.935-4.878-9.256-4.878-16.649 0.007-0.51-0.042-1.006-0.011-1.496l0.013-25.991c0.305-6.445 3.185-10.431 5.353-12.713 3.503-3.689 8.455-5.56 14.721-5.56h0.174l16.11-0.012 0.15 0.004c10.533 0.292 18.123 7.623 18.197 17.822 0.275 3.063 0.104 5.896-0.493 8.452 3.541 0.105 7.91 0.725 10.741 4.383 2.5 3.23 2.516 6.903 2.537 11.985 0.006 1.04 0.035 3.688 0.035 3.688-0.068 6.579-2.098 12.109-5.87 15.987z"/>
   </g>
  </g>
 </g>
 <path fill="#fff" opacity=".1" d="m6.5 2c-0.831 0-1.5 0.669-1.5 1.5v1c0-0.831 0.669-1.5 1.5-1.5h19c0.831 0 1.5 0.669 1.5 1.5v-1c0-0.831-0.669-1.5-1.5-1.5z"/>
 <path opacity=".2" d="m5 28.5v1c0 0.831 0.669 1.5 1.5 1.5h19c0.831 0 1.5-0.669 1.5-1.5v-1c0 0.831-0.669 1.5-1.5 1.5h-19c-0.831 0-1.5-0.669-1.5-1.5z"/>
</svg>

<?xml version="1.0" encoding="UTF-8" standalone="no"?>
<svg
   width="32"
   height="32"
   version="1"
   id="svg32"
   sodipodi:docname="blogilo.svg"
   inkscape:version="1.2.1 (9c6d41e410, 2022-07-14)"
   xmlns:inkscape="http://www.inkscape.org/namespaces/inkscape"
   xmlns:sodipodi="http://sodipodi.sourceforge.net/DTD/sodipodi-0.dtd"
   xmlns="http://www.w3.org/2000/svg"
   xmlns:svg="http://www.w3.org/2000/svg">
  <defs
     id="defs36" />
  <sodipodi:namedview
     id="namedview34"
     pagecolor="#ffffff"
     bordercolor="#000000"
     borderopacity="0.25"
     inkscape:showpageshadow="2"
     inkscape:pageopacity="0.0"
     inkscape:pagecheckerboard="0"
     inkscape:deskcolor="#d1d1d1"
     showgrid="false"
     inkscape:zoom="16.046875"
     inkscape:cx="3.0847128"
     inkscape:cy="14.613437"
     inkscape:current-layer="svg32" />
  <g
     id="g280"
     transform="matrix(0.84567276,0.25354745,-0.25354745,0.84567276,6.6527688,-2.0103597)">
    <path
       fill="#35b9f5"
       d="M 27,28.5 V 3.5 C 27,2.669 26.331,2 25.5,2 H 6.5 C 5.669,2 5,2.669 5,3.5 v 25 C 5,29.331 5.669,30 6.5,30 h 19 c 0.831,0 1.5,-0.669 1.5,-1.5 z"
       id="path2" />
    <g
       opacity="0.2"
       transform="matrix(0.14322,0,0,0.14322,9,10)"
       id="g14">
      <g
         id="g12">
        <g
           id="g10">
          <path
             d="m 36.491,40.31 c 0,0 13.827,-0.006 13.858,-0.006 3.201,0 5.82,-2.344 5.873,-5.556 0.051,-3.244 -2.537,-6.15 -5.781,-6.201 l -13.766,0.016 c -3.249,-0.031 -5.914,2.537 -5.966,5.78 -0.051,3.243 2.538,5.915 5.782,5.967 z"
             id="path4" />
          <path
             d="M 62.55,55.48 H 35.021 c -3.244,0 -5.875,2.631 -5.875,5.875 0,3.244 2.631,5.873 5.875,5.873 H 62.55 c 3.244,0 5.875,-2.629 5.875,-5.873 0,-3.244 -2.631,-5.875 -5.875,-5.875 z"
             id="path6" />
          <path
             d="M 48.875,0 C 21.883,0 0,21.882 0,48.875 0,75.868 21.883,97.75 48.875,97.75 75.867,97.75 97.75,75.868 97.75,48.875 97.75,21.882 75.867,0 48.875,0 Z m 27.902,77.021 c -3.776,3.889 -9.108,5.972 -15.42,6.024 H 36.688 c -0.155,0.002 -0.31,0.003 -0.463,0.003 -7.074,0 -12.534,-1.994 -16.227,-5.927 -3.694,-3.935 -4.878,-9.256 -4.878,-16.649 0.007,-0.51 -0.042,-1.006 -0.011,-1.496 l 0.013,-25.991 c 0.305,-6.445 3.185,-10.431 5.353,-12.713 3.503,-3.689 8.455,-5.56 14.721,-5.56 h 0.174 l 16.11,-0.012 0.15,0.004 c 10.533,0.292 18.123,7.623 18.197,17.822 0.275,3.063 0.104,5.896 -0.493,8.452 3.541,0.105 7.91,0.725 10.741,4.383 2.5,3.23 2.516,6.903 2.537,11.985 0.006,1.04 0.035,3.688 0.035,3.688 -0.068,6.579 -2.098,12.109 -5.87,15.987 z"
             id="path8" />
        </g>
      </g>
    </g>
    <g
       fill="#ffffff"
       transform="matrix(0.14322,0,0,0.14322,9,9)"
       id="g26">
      <g
         id="g24">
        <g
           id="g22">
          <path
             d="m 36.491,40.31 c 0,0 13.827,-0.006 13.858,-0.006 3.201,0 5.82,-2.344 5.873,-5.556 0.051,-3.244 -2.537,-6.15 -5.781,-6.201 l -13.766,0.016 c -3.249,-0.031 -5.914,2.537 -5.966,5.78 -0.051,3.243 2.538,5.915 5.782,5.967 z"
             id="path16" />
          <path
             d="M 62.55,55.48 H 35.021 c -3.244,0 -5.875,2.631 -5.875,5.875 0,3.244 2.631,5.873 5.875,5.873 H 62.55 c 3.244,0 5.875,-2.629 5.875,-5.873 0,-3.244 -2.631,-5.875 -5.875,-5.875 z"
             id="path18" />
          <path
             d="M 48.875,0 C 21.883,0 0,21.882 0,48.875 0,75.868 21.883,97.75 48.875,97.75 75.867,97.75 97.75,75.868 97.75,48.875 97.75,21.882 75.867,0 48.875,0 Z m 27.902,77.021 c -3.776,3.889 -9.108,5.972 -15.42,6.024 H 36.688 c -0.155,0.002 -0.31,0.003 -0.463,0.003 -7.074,0 -12.534,-1.994 -16.227,-5.927 -3.694,-3.935 -4.878,-9.256 -4.878,-16.649 0.007,-0.51 -0.042,-1.006 -0.011,-1.496 l 0.013,-25.991 c 0.305,-6.445 3.185,-10.431 5.353,-12.713 3.503,-3.689 8.455,-5.56 14.721,-5.56 h 0.174 l 16.11,-0.012 0.15,0.004 c 10.533,0.292 18.123,7.623 18.197,17.822 0.275,3.063 0.104,5.896 -0.493,8.452 3.541,0.105 7.91,0.725 10.741,4.383 2.5,3.23 2.516,6.903 2.537,11.985 0.006,1.04 0.035,3.688 0.035,3.688 -0.068,6.579 -2.098,12.109 -5.87,15.987 z"
             id="path20" />
        </g>
      </g>
    </g>
    <path
       fill="#ffffff"
       opacity="0.1"
       d="M 6.5,2 C 5.669,2 5,2.669 5,3.5 v 1 C 5,3.669 5.669,3 6.5,3 h 19 C 26.331,3 27,3.669 27,4.5 v -1 C 27,2.669 26.331,2 25.5,2 Z"
       id="path28" />
    <path
       opacity="0.2"
       d="m 5,28.5 v 1 C 5,30.331 5.669,31 6.5,31 h 19 c 0.831,0 1.5,-0.669 1.5,-1.5 v -1 C 27,29.331 26.331,30 25.5,30 H 6.5 C 5.669,30 5,29.331 5,28.5 Z"
       id="path30" />
  </g>
</svg>
